svg/UnitedNationsOCHA-Humanitarian/socioeconomic_and_development_urban_and_rural_icon.svg

<svg xmlns="http://www.w3.org/2000/svg" viewBox="0 0 32 32" enable-background="new 0 0 32 32"><path fill="#407cca" d="m22.404 14.19v-5.457h-2.43v5.457h-1.615v-10.189h-4.052v10.189h-1.076v-6.55h-3.51v6.55h-2.318v1.822h17.193v-1.822h-2.192m-5.745-9.275h1.28v.885h-1.28v-.885m0 1.395h1.28v.884h-1.28v-.884m-1.932-1.395h1.28v.885h-1.28v-.885m0 1.395h1.28v.884h-1.28v-.884m-2.796 2.086h.783v1.044h-.783v-1.044m-1.697 0h.788v1.044h-.788v-1.044m14.363 19.604h-17.194l.853-1.479 2.655-4.601c.47-.813 1.237-.813 1.706 0 0 0 .617 1.069.69 1.194.354-.613 2.236-3.875 2.236-3.875.47-.813 1.235-.813 1.706.0001l3.739 6.479c.192-.335.383-.664.529-.917.339-.588.893-.588 1.233 0 .339.586.892 1.545 1.232 2.132l.615 1.066"/></svg>

<?xml version="1.0" encoding="utf-8"?>
<!-- Generator: Adobe Illustrator 16.0.3, SVG Export Plug-In . SVG Version: 6.00 Build 0)  -->
<!DOCTYPE svg PUBLIC "-//W3C//DTD SVG 1.1//EN" "http://www.w3.org/Graphics/SVG/1.1/DTD/svg11.dtd">
<svg version="1.1" id="Layer_1" xmlns="http://www.w3.org/2000/svg" xmlns:xlink="http://www.w3.org/1999/xlink" x="0px" y="0px"
	 width="32px" height="32px" viewBox="0 0 32 32" enable-background="new 0 0 32 32" xml:space="preserve">
<path fill="#407CCA" d="M22.404,14.19V8.733h-2.43v5.457h-1.615V4.001h-4.052V14.19h-1.076V7.64h-3.51v6.55H7.403v1.822h17.193
	V14.19H22.404z M16.659,4.915h1.28V5.8h-1.28V4.915z M16.659,6.31h1.28v0.884h-1.28V6.31z M14.727,4.915h1.28V5.8h-1.28V4.915z
	 M14.727,6.31h1.28v0.884h-1.28V6.31z M11.931,8.396h0.783V9.44h-0.783V8.396z M10.234,8.396h0.788V9.44h-0.788V8.396z M24.597,28
	H7.403l0.853-1.479l2.655-4.601c0.47-0.813,1.237-0.813,1.706,0c0,0,0.617,1.069,0.69,1.194c0.354-0.613,2.236-3.875,2.236-3.875
	c0.47-0.813,1.235-0.813,1.706,0.001l3.739,6.479c0.192-0.335,0.383-0.664,0.529-0.917c0.339-0.588,0.893-0.588,1.233,0
	c0.339,0.586,0.892,1.545,1.232,2.132L24.597,28z"/>
</svg>
